X: 12865
T: Fermoy Lasses, The
R: reel
M: 4/4
K: Eminor
GBEB GBEB|EBGB c2 BA|GBEB GBEB|EDFG A2 BA|
GBEB GBEB|EBGB c2 BA|GABc dedc|ADFA c2 BA:|
G2 BG dGBG|G/G/G Bd egdB|G2 BG dGBG|AFDF AcBA|
G2 BG dGBG|G/G/G Bd e2 ef|gagf edBd|(e/f/g) dB AGEF:|

